X: 32140
T: Peter McArdle's
R: polka
M: 2/4
K: Dmajor
|:AD FD|AB de/f/|ge fd|e/f/e/d/ Bc/B/|
AD FD|AB df|af e/g/f/e/|d2 dB:|
|:dc/d/ fd/f/|ge fd|Bd e>d|cA AB/c/|
dc/d/ fd/f/|ge fd|Bd e/g/f/e/|d2 dB:|

